client/public/img/game/shared/weapons/firework_launcher_world.svg

<?xml version="1.0" encoding="UTF-8" standalone="no"?>
<svg
   width="169"
   height="38"
   viewBox="0 0 169 38"
   fill="none"
   version="1.1"
   id="svg25"
   xmlns="http://www.w3.org/2000/svg"
   xmlns:svg="http://www.w3.org/2000/svg">
  <rect
     x="10.3638"
     y="28.4668"
     width="5.51"
     height="5.99677"
     rx="1"
     fill="#4D4951"
     stroke="#171618"
     stroke-width="1.5"
     id="rect1" />
  <rect
     x="10.3638"
     y="4.2207"
     width="5.51"
     height="5.99677"
     rx="1"
     fill="#4D4951"
     stroke="#171618"
     stroke-width="1.5"
     id="rect2" />
  <path
     d="M70.1427 33.0352C69.72 33.0352 69.3774 33.537 69.3774 34.1561C69.3774 34.7752 69.72 35.277 70.1427 35.277H127.592C128.015 35.277 128.358 34.7752 128.358 34.1561C128.358 33.537 128.015 33.0352 127.592 33.0352H70.1427Z"
     fill="#454248"
     stroke="#171618"
     stroke-width="1.49985"
     stroke-linecap="round"
     id="path2" />
  <path
     d="M70.1427 5.68555C69.72 5.68555 69.3774 5.18369 69.3774 4.56461C69.3774 3.94553 69.72 3.44367 70.1427 3.44367H127.592C128.015 3.44367 128.358 3.94553 128.358 4.56461C128.358 5.18369 128.015 5.68555 127.592 5.68555H70.1427Z"
     fill="#454248"
     stroke="#171618"
     stroke-width="1.49985"
     stroke-linecap="round"
     id="path3" />
  <path
     d="M126.199 33.468C126.199 31.8355 126.199 29.0342 126.199 29.0342L132.014 28.9375C132.014 28.9375 132.111 32.7311 132.111 33.468C132.111 35.1005 130.787 36.4239 129.155 36.4239C127.522 36.4239 126.199 35.1005 126.199 33.468Z"
     fill="#4D4951"
     stroke="#171618"
     stroke-width="2.99998"
     stroke-linecap="round"
     id="path4" />
  <path
     d="M126.199 5.25272C126.199 6.88521 126.199 9.68655 126.199 9.68655L132.014 9.7832C132.014 9.7832 132.111 5.98959 132.111 5.25272C132.111 3.62023 130.787 2.29684 129.155 2.29684C127.522 2.29684 126.199 3.62023 126.199 5.25272Z"
     fill="#4D4951"
     stroke="#171618"
     stroke-width="2.99998"
     stroke-linecap="round"
     id="path5" />
  <path
     d="M66.957 33.468C66.957 31.8355 66.957 29.0342 66.957 29.0342L72.7724 28.9375C72.7724 28.9375 72.8688 32.7311 72.8688 33.468C72.8688 35.1005 71.5454 36.4239 69.9129 36.4239C68.2804 36.4239 66.957 35.1005 66.957 33.468Z"
     fill="#4D4951"
     stroke="#171618"
     stroke-width="2.99998"
     stroke-linecap="round"
     id="path6" />
  <path
     d="M66.957 5.25272C66.957 6.88521 66.957 9.68655 66.957 9.68655L72.7724 9.7832C72.7724 9.7832 72.8688 5.98959 72.8688 5.25272C72.8688 3.62023 71.5454 2.29684 69.9129 2.29684C68.2804 2.29684 66.957 3.62023 66.957 5.25272Z"
     fill="#4D4951"
     stroke="#171618"
     stroke-width="2.99998"
     stroke-linecap="round"
     id="path7" />
  <path
     d="M120.636 30.9603C120.117 30.9603 119.696 30.464 119.696 29.8519V8.86822C119.696 8.25604 120.117 7.75977 120.636 7.75977H138.124C138.643 7.75977 139.064 8.25604 139.064 8.86822V29.8519C139.064 30.464 138.643 30.9603 138.124 30.9603H120.636Z"
     fill="#7D2DD2"
     stroke="#170826"
     stroke-width="2.99998"
     stroke-linecap="round"
     id="path8" />
  <path
     d="M45.3643 27.3697V11.3146H149.255C156.035 11.3146 160.04 10.3339 163.924 9.75138C165.564 9.5053 166.552 10.1755 166.552 11.5053V27.3795C166.552 28.3686 165.725 29.2082 164.326 28.9957C160.565 28.4241 156.211 27.3697 149.153 27.3697H45.3643Z"
     fill="url(#paint0_linear_2240_5)"
     stroke="url(#paint1_linear_2240_5)"
     stroke-width="2.99998"
     stroke-linecap="round"
     id="path9" />
  <path
     d="M145.633 31.9024C145.108 31.9024 144.683 31.4401 144.683 30.8698V7.80988C144.683 7.23963 145.108 6.77734 145.633 6.77734H148.167C148.692 6.77734 149.117 7.23962 149.117 7.80988V30.8698C149.117 31.4401 148.692 31.9024 148.167 31.9024H145.633Z"
     fill="#736D79"
     stroke="#171618"
     stroke-width="2.99998"
     stroke-linecap="round"
     id="path10" />
  <path
     d="M144.129 24.5155C143.517 24.5155 143.021 24.0192 143.021 23.4071V15.2784C143.021 14.6662 143.517 14.1699 144.129 14.1699H149.671C150.283 14.1699 150.78 14.6662 150.78 15.2784V23.4071C150.78 24.0192 150.283 24.5155 149.671 24.5155H144.129Z"
     fill="#736D79"
     stroke="#171618"
     stroke-width="2.99998"
     stroke-linecap="round"
     id="path11" />
  <path
     d="M145.633 31.9024C145.109 31.9024 144.683 31.4401 144.683 30.8698V24.5126H144.129C143.517 24.5126 143.021 24.0164 143.021 23.4042V15.2755C143.021 14.6633 143.517 14.1671 144.129 14.1671H144.683V7.80988C144.683 7.23963 145.109 6.77734 145.633 6.77734H148.167C148.692 6.77734 149.117 7.23962 149.117 7.80988V14.1671H149.671C150.283 14.1671 150.78 14.6633 150.78 15.2755V23.4042C150.78 24.0164 150.283 24.5126 149.671 24.5126H149.117V30.8698C149.117 31.4401 148.692 31.9024 148.167 31.9024H145.633Z"
     fill="#736D79"
     stroke="#171618"
     stroke-width="2.99998"
     stroke-linecap="round"
     id="path12" />
  <path
     d="M3.07771 24.6336C2.46552 24.6336 1.96924 24.1373 1.96924 23.5251V15.1592C1.96924 14.5471 2.46552 14.0508 3.07771 14.0508H6.81364C7.42582 14.0508 7.92211 14.5471 7.92211 15.1592V23.5251C7.92211 24.1373 7.42582 24.6336 6.81364 24.6336H3.07771Z"
     fill="#615C66"
     stroke="#171618"
     stroke-width="2.99998"
     stroke-linecap="round"
     id="path13" />
  <path
     d="M16.6973 6.78125V31.8974H10.7297C8.26049 31.8974 6.25879 29.8957 6.25879 27.4265V11.2521C6.25879 8.7829 8.26049 6.78125 10.7297 6.78125H16.6973Z"
     fill="#68636E"
     stroke="#171618"
     stroke-width="2.99998"
     stroke-linecap="round"
     id="path14" />
  <path
     d="M12.332 31.8974V6.78125H73.6606C76.5664 6.78125 78.922 8.7829 78.922 11.2521V27.4265C78.922 29.8957 76.5664 31.8974 73.6606 31.8974H12.332Z"
     fill="#7F7986"
     stroke="#171618"
     stroke-width="2.99998"
     stroke-linecap="round"
     id="path15" />
  <path
     d="M48.3938 26.4309C46.2077 26.4309 44.4355 24.4292 44.4355 21.96V16.7228C44.4355 14.2536 46.2077 12.252 48.3938 12.252H59.3051C61.4912 12.252 63.2634 14.2536 63.2634 16.7228V21.96C63.2634 24.4292 61.4912 26.4309 59.3051 26.4309H48.3938Z"
     fill="#59555D"
     stroke="#171618"
     stroke-width="1.49985"
     stroke-linecap="round"
     id="path16" />
  <path
     d="M55.0446 27.8955C54.8497 27.8955 54.6916 27.5651 54.6916 27.1575V25.9332C54.1967 25.4179 53.8926 24.7182 53.8926 23.9474C53.8926 23.1766 54.1967 22.4769 54.6916 21.9616V17.191C54.1967 16.6757 53.8926 15.976 53.8926 15.2052C53.8926 14.4344 54.1967 13.7346 54.6916 13.2194V11.5251C54.6916 11.1175 54.8497 10.7871 55.0446 10.7871H58.4747C58.6697 10.7871 58.8278 11.1175 58.8278 11.5251V13.2194C59.3226 13.7346 59.6268 14.4344 59.6268 15.2052C59.6268 15.976 59.3226 16.6757 58.8278 17.191V21.9616C59.3226 22.4769 59.6268 23.1766 59.6268 23.9474C59.6268 24.7182 59.3226 25.4179 58.8278 25.9332V27.1575C58.8278 27.5651 58.6697 27.8955 58.4747 27.8955H55.0446Z"
     fill="#4C4950"
     stroke="#171618"
     stroke-width="1.49985"
     stroke-linecap="round"
     id="path17" />
  <path
     d="M31.8018 32.6081C31.1896 32.6081 30.6934 32.1119 30.6934 31.4996V7.17877C30.6934 6.56653 31.1896 6.07031 31.8018 6.07031H38.7836C39.3958 6.07031 39.8921 6.56653 39.8921 7.17877V31.4996C39.8921 32.1119 39.3958 32.6081 38.7836 32.6081H31.8018Z"
     fill="#7D2DD2"
     stroke="#170826"
     stroke-width="2.99998"
     stroke-linecap="round"
     id="path18" />
  <defs
     id="defs25">
    <linearGradient
       id="paint0_linear_2240_5"
       x1="73.2703"
       y1="19.3628"
       x2="168.052"
       y2="19.3628"
       gradientUnits="userSpaceOnUse">
      <stop
         stop-color="#7E2DD2"
         id="stop18" />
      <stop
         offset="0.33"
         stop-color="#35C97C"
         id="stop19" />
      <stop
         offset="0.67"
         stop-color="#D2B12D"
         id="stop20" />
      <stop
         offset="1"
         stop-color="#D22D2D"
         id="stop21" />
    </linearGradient>
    <linearGradient
       id="paint1_linear_2240_5"
       x1="73.2703"
       y1="19.3628"
       x2="168.052"
       y2="19.3628"
       gradientUnits="userSpaceOnUse">
      <stop
         stop-color="#170826"
         id="stop22" />
      <stop
         offset="0.33"
         stop-color="#0A2416"
         id="stop23" />
      <stop
         offset="0.67"
         stop-color="#262008"
         id="stop24" />
      <stop
         offset="1"
         stop-color="#260808"
         id="stop25" />
    </linearGradient>
  </defs>
</svg>

<svg xmlns="http://www.w3.org/2000/svg" width="169" height="38" fill="none"><rect width="5.51" height="5.997" x="10.364" y="28.467" fill="#4D4951" stroke="#171618" stroke-width="1.5" rx="1"/><rect width="5.51" height="5.997" x="10.364" y="4.221" fill="#4D4951" stroke="#171618" stroke-width="1.5" rx="1"/><path fill="#454248" stroke="#171618" stroke-linecap="round" stroke-width="1.5" d="M70.143 33.035c-.423 0-.766.502-.766 1.121 0 .62.343 1.121.766 1.121h57.449c.423 0 .766-.502.766-1.12 0-.62-.343-1.122-.766-1.122zM70.143 5.686c-.423 0-.766-.502-.766-1.121 0-.62.343-1.121.766-1.121h57.449c.423 0 .766.502.766 1.12 0 .62-.343 1.122-.766 1.122z"/><path fill="#4D4951" stroke="#171618" stroke-linecap="round" stroke-width="3" d="M126.199 33.468v-4.434l5.815-.096s.097 3.793.097 4.53a2.956 2.956 0 0 1-5.912 0ZM126.199 5.253v4.434l5.815.096s.097-3.793.097-4.53a2.956 2.956 0 0 0-5.912 0ZM66.957 33.468v-4.434l5.815-.096s.097 3.793.097 4.53a2.956 2.956 0 1 1-5.912 0ZM66.957 5.253v4.434l5.815.096s.097-3.793.097-4.53a2.956 2.956 0 0 0-5.912 0Z"/><path fill="#7D2DD2" stroke="#170826" stroke-linecap="round" stroke-width="3" d="M120.636 30.96c-.519 0-.94-.496-.94-1.108V8.868c0-.612.421-1.108.94-1.108h17.488c.519 0 .94.496.94 1.108v20.984c0 .612-.421 1.108-.94 1.108z"/><path fill="url(#a)" stroke="url(#b)" stroke-linecap="round" stroke-width="3" d="M45.364 27.37V11.315h103.891c6.78 0 10.785-.981 14.669-1.564 1.64-.246 2.628.425 2.628 1.754V27.38c0 .989-.827 1.828-2.226 1.616-3.761-.572-8.115-1.626-15.173-1.626z"/><path fill="#736D79" stroke="#171618" stroke-linecap="round" stroke-width="3" d="M145.633 31.902c-.525 0-.95-.462-.95-1.032V7.81c0-.57.425-1.033.95-1.033h2.534c.525 0 .95.463.95 1.033v23.06c0 .57-.425 1.032-.95 1.032z"/><path fill="#736D79" stroke="#171618" stroke-linecap="round" stroke-width="3" d="M144.129 24.516a1.11 1.11 0 0 1-1.108-1.109v-8.129c0-.612.496-1.108 1.108-1.108h5.542a1.11 1.11 0 0 1 1.109 1.108v8.13c0 .611-.497 1.107-1.109 1.107z"/><path fill="#736D79" stroke="#171618" stroke-linecap="round" stroke-width="3" d="M145.633 31.902c-.524 0-.95-.462-.95-1.032v-6.357h-.554a1.11 1.11 0 0 1-1.108-1.109v-8.129c0-.612.496-1.108 1.108-1.108h.554V7.81c0-.57.426-1.033.95-1.033h2.534c.525 0 .95.463.95 1.033v6.357h.554c.612 0 1.109.496 1.109 1.108v8.13c0 .611-.497 1.108-1.109 1.108h-.554v6.357c0 .57-.425 1.032-.95 1.032z"/><path fill="#615C66" stroke="#171618" stroke-linecap="round" stroke-width="3" d="M3.078 24.634a1.11 1.11 0 0 1-1.109-1.109V15.16c0-.612.497-1.108 1.109-1.108h3.736c.612 0 1.108.496 1.108 1.108v8.366c0 .612-.496 1.109-1.108 1.109z"/><path fill="#68636E" stroke="#171618" stroke-linecap="round" stroke-width="3" d="M16.697 6.781v25.116H10.73a4.47 4.47 0 0 1-4.471-4.47V11.252a4.47 4.47 0 0 1 4.47-4.47z"/><path fill="#7F7986" stroke="#171618" stroke-linecap="round" stroke-width="3" d="M12.332 31.897V6.781h61.329c2.905 0 5.261 2.002 5.261 4.471v16.174c0 2.47-2.356 4.471-5.261 4.471z"/><path fill="#59555D" stroke="#171618" stroke-linecap="round" stroke-width="1.5" d="M48.394 26.43c-2.186 0-3.959-2-3.959-4.47v-5.237c0-2.47 1.773-4.471 3.959-4.471h10.911c2.186 0 3.958 2.002 3.958 4.47v5.238c0 2.47-1.772 4.47-3.958 4.47z"/><path fill="#4C4950" stroke="#171618" stroke-linecap="round" stroke-width="1.5" d="M55.045 27.896c-.195 0-.353-.33-.353-.739v-1.224a2.86 2.86 0 0 1-.8-1.986c0-.77.305-1.47.8-1.985V17.19a2.86 2.86 0 0 1-.8-1.986c0-.77.305-1.47.8-1.986v-1.694c0-.408.158-.738.353-.738h3.43c.195 0 .353.33.353.738v1.694c.495.516.799 1.215.799 1.986s-.304 1.47-.8 1.986v4.77c.496.516.8 1.216.8 1.986 0 .771-.304 1.47-.8 1.986v1.224c0 .408-.157.738-.352.738z"/><path fill="#7D2DD2" stroke="#170826" stroke-linecap="round" stroke-width="3" d="M31.802 32.608a1.11 1.11 0 0 1-1.109-1.108V7.179c0-.612.497-1.109 1.109-1.109h6.982c.612 0 1.108.497 1.108 1.109v24.32c0 .613-.496 1.11-1.108 1.11z"/><defs><linearGradient id="a" x1="73.27" x2="168.052" y1="19.363" y2="19.363" gradientUnits="userSpaceOnUse"><stop stop-color="#7E2DD2"/><stop offset=".33" stop-color="#35C97C"/><stop offset=".67" stop-color="#D2B12D"/><stop offset="1" stop-color="#D22D2D"/></linearGradient><linearGradient id="b" x1="73.27" x2="168.052" y1="19.363" y2="19.363" gradientUnits="userSpaceOnUse"><stop stop-color="#170826"/><stop offset=".33" stop-color="#0A2416"/><stop offset=".67" stop-color="#262008"/><stop offset="1" stop-color="#260808"/></linearGradient></defs></svg>
